X:1
T:Si m'e dolce
T:Eliseo Ghibel
T:Source : Primo libro de Madrigali a tre voci---Venetia---A.Gardano---1552. (First print : Venetia---G.Scotto---1551) Editor : André Vierendeels (09/11/17). Notes : Original clefs : C4, C4, F4 Editorial accidentals above the staff Dotted brackets indicate black notes
T:Si m'e dolce
T:©
T:©
T:©
C:Eliseo Ghibel
Z:©
%%score [ 1 2 3 ]
L:1/8
Q:1/4=95
M:4/4
K:C
V:1 treble-8 nm="Tenor 1" snm="T 1"
V:2 treble-8 nm="Tenor 2" snm="T 2"
V:3 bass nm="Bass" snm="B"
V:1
 d4 e4 | e2 d4 d2 | d4 B2 cB | AG G3 F FE |[M:3/4] G4 B2 | A4 B2 | c4 B2 | c4 B2- | B2 G4 | %9
w: Si m'e|dol- ce'il tor-|men- to'el pian- *|ger _ gio- * * *|co, ch'io|can- to,|suo no'et|bal- lo|_ et|
 A2 G2 A2 | c4 B2 |[M:4/4] c4 z2 G2 | G2 G2 _B4- | B4 G4 | z2 G2 ABcA | B2 A2 z2 D2 | EFGE F2 E2 | %17
w: can- tan do'et|bal- lan-|do, al|suon lan- guis-|* co|et se- guo'un ba- si-|lis- co, et|se- guo'un ba- si- lis- co,|
 z2 A2 BcdA | c2 BG AB c2- | cBBA c4 | z2 e2 e4- | e2 d2 z2 d2 | d2 c2 d2 A2 | B2 G2 z2 A2 | %24
w: et se- guo'un ba- si-|lis- co, un ba- si- lis-|* * * * co,|co- si|_ vol, co-|si vol mia ven-|tu- ra o|
 B6 A2- | AG G4 F2 | G4 D4 | z2 G2 G2 F2 | G2 E2 D4 | G4 z2 d2 | B2 c2 A4 | B4 z2 B2 | c2 d2 c4 | %33
w: ver mio|_ _ fal- *|* lo,|co- si vol|mia ven- tu-|ra, o|ver mio fal-|lo, o|ver mio fal-|
 B8 |] %34
w: lo.|
V:2
 B4 c4 | c2 B4 B2 | A4 G4 | A2 B2 c4 |[M:3/4] B4 d2 | d4 d2 | f4 d2 | e4 d2- | d2 c4 | c3 c c2 | %10
w: Si m'e|dol- ce'il tor-|men- to'el|pian- ger gio-|co, ch'io|can- to,|suo no'et|bal- lo|_ et|can- tan- do'et|
 c2 d4 |[M:4/4] e4 z2 c2 | c2 c2 d4- | d4 c2 z2 | c2 de fd e2 | d2 z2 G2 AB | cA B2 A2 z2 | %17
w: bal- lan-|do, al|suon lan- guis-|* co|et se- guo'un ba- si- lis-|co, et se- guo'un|ba- si- lis- co,|
 D2 EF GE F2 | G2 z2 c2 ee | de f4 ed | e2 c2 c2 c2 | B2 B2 A4 | B2 G2 G2 F2 | G2 E2 D4 | %24
w: et se- guo'un ba- si- lis-|co, se- guo'un ba-|si- * lis- * *|co, co- si vol|mia ven- tu-|ra, co- si vol|mia ven- tu-|
 G4 z2 d2 | B2 c2 A4 | B4 z2 d2 | d2 c2 d2 A2 | B2 G2 z2 A2 | B6 A2 |"^#" AG G4 F2 | G4 z2 D2 | %32
w: ra, o|ver mio fal-|lo, co-|si vol mia ven-|tu- ra, o|ver mio|fal- * * *|lo, o|
 E2 D2 E4 | D8 |] %34
w: ver mio fal-|lo.|
V:3
 G,4 C,4 | C,2 G,4 G,2 | D,4 E,2 C,2- | C,2 B,,2 A,,4 |[M:3/4] G,,4 G,2 | D,4 G,2 | F,4 G,2 | %7
w: Si m'e|dol- ce'il tor-|men- to'el pian-|* der gio-|co, ch'io|can- to,|suo- no'et|
 C,4 G,2- | G,2 C,4 | F,2 E,2 F,2 | A,2 G,4 |[M:4/4] C,4 z2 C,2 | C,2 C,2 _B,,4- | B,,4 C,4- | %14
w: bal- lo|_ et|can- tan- do'et|bal- lan-|do, al|suon lan- guis-|* co|
 C,2 z2 z2 C,2 | D,E,F,D, E,2 D,2 | z2 G,,2 A,,B,,C,A,, | B,,2 A,,2 z2 D,2 | %18
w: _ et|se- guo'un ba- si- lis- co|et se- guo'un ba- si-|lis- co, et|
 E,F,G,E, F,E, E,D,/C,/ | D,4 C,4 |"^#" z2 C,2 C,4 | z2 G,2 G,2 F,2 | G,2 E,2 D,4 | %23
w: se- guo'un ba- si- lis- * * * *|* co|co- si,|co- si vol|mia ven- tu-|
 G,,2 G,2 G,2 F,2 | E,4 D,2 D,2 | E,2 C,2 D,4 | G,,2 G,2 G,2 F,2 | G,2 E,2 D,4 | G,,2 G,2 G,2 F,2 | %29
w: ra, o ver mio|fal- lo, o|ver mio fal-|lo, co- si vol|mia ven- tu-|ra, o- ver mio|
 E,4 D,2 D,2 | E,2 C,2 D,4 | G,,4 z2 G,,2 | C,2 B,,2 C,4 | G,,8 |] %34
w: fal- lo, o-|ver mio fal-|lo, o-|ver mio fal-|lo.|

